X:331
T:Sheila Coyle's
Z: id:dc-reel-382
M:C
L:1/8
K:D Major
DE|FAA2 FADF|AFdA BdAF|GBBA B3A|GBdf edBA|!
FAA2 FADF|AFdA BdAF|GABd AFF2|EGFE FD:|!
FA|dffe fgfe|dedB ADFA|Acc2 ecc2|BAGB ADFA|!
dffe fgfe|dedB ADFA|GABd AFF2|EGFE FD:|!

